X:1
T:Urbs Beata, 87.87.87
T:Urbs Beata, 87.87.87
T:Sarum Melody
T:Public Domain Courtesy of the Cyber Hymnal™
C:Sarum Melody
Z:Public Domain
Z:Courtesy of the Cyber Hymnal™
%%score ( 1 2 ) ( 3 4 )
L:1/8
Q:1/4=112
M:4/4
K:Bb
V:1 treble 
V:2 treble 
V:3 bass 
V:4 bass 
V:1
 [Fd]2 [Gd]2 [Fd]2 ([Fc]2 [DB]2) | [Fc]2 [Fd]2 [Fd]2 [EG]2 | [FB]2 [Cc]2 [CA]2 [B,B]2 | %3
 [B,G]2 F2 [B,G]4 | [B,B]2 [EG]2 [FA]2 [FB]2 | [Fc]2 [Dd]2 ([Ec]2 BA) | G4 ([CA]2 [B,B]2) | %7
 [FA]2 [DG]2 [FA]2 [=EG]2 | [CF]4 D2 [CF]2 [DG]2 | ([EG]2 [EG]2) [DF]2 | [FB]2 [Ec]2 [Ec]2 [DB]2 | %11
 [Fd]2 [Fc]2 (B2 A2) [DB]2 | ([Gc]2 BA) [EG]2 [DF]2 | [DG]4 |] %14
V:2
 x10 | x8 | x8 | x2 (DC) x4 | x8 | x6 F2 | G4 x4 | x8 | x4 D2 x4 | x6 | x8 | x4 F4 x2 | x2 F2 x4 | %13
 x4 |] %14
V:3
 [B,D]2 [G,B,]2 [D,A,]2 ([F,A,]2 [G,B,]2) | [F,A,]2 [D,A,]2 [A,,B,]2 [E,B,]2 | %2
 [D,B,]2 [E,G,]2 [F,A,]2 [D,F,]2 | [E,G,]2 (B,A,) [E,G,]4 | [D,F,]2 [E,B,]2 [E,C]2 [D,D]2 | %5
 [A,,C]2 (B,A,) ([C,G,]2 [D,F,]2) | [E,B,]4 ([F,A,]2 [D,F,]2) | [C,C]2 [B,,D]2 C2 [C,C]2 | %8
 [F,A,]4 B,2 [A,C]2 [G,B,]2 | [E,B,]2 B,4 | [D,F,]2 [E,G,]2 [F,A,]2 [G,B,]2 | %11
 [D,A,]2 [F,A,]2 ([B,D]2 [F,C]2) [G,B,]2 | ([C,E]2 [D,D]2) [E,B,]2 [B,,B,]2 | [G,,B,]4 |] %14
V:4
 x10 | x8 | x8 | x2 B,,2 x4 | x8 | x2 B,,2 x4 | x8 | x4 (A,,B,,) x2 | x4 B,2 x4 | x2 (G,,2 B,,2) | %10
 x8 | x10 | x8 | x4 |] %14

